X:97
T: Ni chang Shange,wo da qiang
N: C1590
O: China,Jiangsu, Haimen
S: III, 505]
R: Shange, Ganjuzi]
M: 2/4
L: 1/16
K: F
c2d2d2cA | c2d2cAG2- | G2AcdcAz |
c2d2cAG4Ac | D4F2A2 | GFD6 |
(3D2F2D2(3D2F2D2(3D2F2D2 | FDz4
cc | c2c2G2c2 | F2G4Ac | dcAz
A2dd | cAG4AG | D4F2A2 | GFD6

@@@ Tune index: 6652
